icon-themes/breeze_svg/sc/res/na03.svg

<svg viewBox="0 0 16 16" xmlns="http://www.w3.org/2000/svg"><path d="m2 5v9h1 6 1v-1-3-1-3-1h-1-2-1-3zm1 1h3v3h-3zm4 0h2v3h-2zm-4 4h3v3h-3zm4 0h2v3h-2z" fill="#1d99f3"/><path d="m2 2v3h1v-2h3v2h1v-2h2v2h1v-2h1 1 1v2h-1-1-1v1h1 1 1v3h-1-1-1v1h1 1 1v3h-1-1-1v1h3 1v-12z" fill="#4d4d4d"/></svg>

<svg xmlns="http://www.w3.org/2000/svg" viewBox="0 0 16 16">
    <path
       style="fill:#1d99f3"
       d="M 2 5 L 2 14 L 3 14 L 9 14 L 10 14 L 10 13 L 10 10 L 10 9 L 10 6 L 10 5 L 9 5 L 7 5 L 6 5 L 3 5 L 2 5 z M 3 6 L 6 6 L 6 9 L 3 9 L 3 6 z M 7 6 L 9 6 L 9 9 L 7 9 L 7 6 z M 3 10 L 6 10 L 6 13 L 3 13 L 3 10 z M 7 10 L 9 10 L 9 13 L 7 13 L 7 10 z "
       />
    <path
       style="fill:#4d4d4d"
       d="M 2 2 L 2 5 L 3 5 L 3 3 L 6 3 L 6 5 L 7 5 L 7 3 L 9 3 L 9 5 L 10 5 L 10 3 L 11 3 L 12 3 L 13 3 L 13 5 L 12 5 L 11 5 L 10 5 L 10 6 L 11 6 L 12 6 L 13 6 L 13 9 L 12 9 L 11 9 L 10 9 L 10 10 L 11 10 L 12 10 L 13 10 L 13 13 L 12 13 L 11 13 L 10 13 L 10 14 L 13 14 L 14 14 L 14 2 L 2 2 z "
       />
</svg>
